Newaita-dark/.DP/22/skype-status-disturb-notification.svg

<svg xmlns="http://www.w3.org/2000/svg" xmlns:xlink="http://www.w3.org/1999/xlink" width="22px" height="22px" viewBox="0 0 22 22" version="1.1">
<g id="surface1">
<path style=" stroke:none;fill-rule:nonzero;fill:rgb(93.333334%,93.333334%,93.333334%);fill-opacity:1;" d="M 7.375 2.886719 C 5.21875 2.886719 3.484375 4.621094 3.484375 6.777344 C 3.484375 7.429688 3.644531 8.039062 3.925781 8.578125 C 3.640625 9.363281 3.484375 10.210938 3.484375 11.097656 C 3.484375 15.167969 6.761719 18.441406 10.832031 18.441406 C 11.148438 18.441406 11.460938 18.421875 11.769531 18.382812 C 12.445312 18.960938 13.324219 19.308594 14.289062 19.308594 C 16.441406 19.308594 18.175781 17.574219 18.175781 15.417969 C 18.175781 14.765625 18.019531 14.152344 17.738281 13.617188 C 18.023438 12.828125 18.175781 11.984375 18.175781 11.097656 C 18.175781 9.902344 17.894531 8.773438 17.390625 7.777344 C 17.144531 7.859375 16.875 7.902344 16.601562 7.902344 C 15.214844 7.902344 14.097656 6.789062 14.097656 5.402344 C 14.097656 5.113281 14.148438 4.835938 14.234375 4.582031 C 13.21875 4.050781 12.0625 3.75 10.832031 3.75 C 10.511719 3.75 10.203125 3.773438 9.894531 3.808594 C 9.21875 3.234375 8.335938 2.886719 7.375 2.886719 Z M 7.277344 10.179688 L 14.554688 10.179688 C 15.058594 10.179688 15.464844 10.582031 15.464844 11.085938 C 15.464844 11.589844 15.058594 11.996094 14.554688 11.996094 L 7.277344 11.996094 C 6.773438 11.996094 6.367188 11.589844 6.367188 11.085938 C 6.367188 10.582031 6.773438 10.179688 7.277344 10.179688 Z M 7.277344 10.179688 "/>
<path style=" stroke:none;fill-rule:nonzero;fill:rgb(93.333334%,93.333334%,93.333334%);fill-opacity:1;" d="M 16.601562 3.808594 C 17.480469 3.808594 18.191406 4.523438 18.191406 5.402344 C 18.191406 6.28125 17.480469 6.992188 16.601562 6.992188 C 15.722656 6.992188 15.007812 6.28125 15.007812 5.402344 C 15.007812 4.523438 15.722656 3.808594 16.601562 3.808594 Z M 16.601562 3.808594 "/>
</g>
</svg>

<svg xmlns="http://www.w3.org/2000/svg" width="22pt" height="22pt" viewBox="0 0 22 22"><g fill="#bdbdbd"><path d="M7.375 2.887a3.881 3.881 0 0 0-3.89 3.89c0 .653.16 1.266.44 1.801a7.363 7.363 0 0 0-.44 2.52 7.329 7.329 0 0 0 7.347 7.343c.316 0 .629-.02.934-.058.68.578 1.558.926 2.523.926a3.88 3.88 0 0 0 3.887-3.891c0-.652-.156-1.266-.438-1.805a7.322 7.322 0 0 0 .438-2.515 7.335 7.335 0 0 0-.785-3.32c-.25.081-.516.124-.79.124a2.496 2.496 0 0 1-2.503-2.5c0-.289.05-.562.136-.82a7.315 7.315 0 0 0-3.402-.832c-.316 0-.629.023-.937.059a3.883 3.883 0 0 0-2.52-.922zm-.098 7.289h7.278c.504 0 .91.406.91.91s-.406.91-.91.91H7.277a.909.909 0 0 1-.91-.91c0-.504.406-.91.91-.91zm0 0"/><path d="M16.602 3.809a1.592 1.592 0 1 1-.005 3.184 1.592 1.592 0 0 1 .005-3.184zm0 0"/></g></svg>
